X: 34
M: 6/8
L: 1/8
K: D
d3 Te3 | fed agf |\
efd cBe | {B}A3- A2 ::\
dAd de=c | {c}B3- B2B |\
eBe efd | {d}c3- c2 (a/g/) |\
fed Adc | {c}d3- d2 :|


